X: 171
T: O'Sullivan's March
R: jig
M: 6/8
L: 1/8
K: Gmaj
D | GBA ABd | edB A2 G | GBA ~B3 | AGG G2 D | 
GBA ABd | edB A2 G | GBA ~B3 | AGG G2 :| 
|: g | e2 g e2 g | ege edB | ded dBd | deB {d}BAG |
cBc dcd | e/f/gB A2 G | GBA ~B3 | AGG G2 :|

